X: 4
T: Jump At The Sun
R: jig
M: 6/8
L: 1/8
K: Edor
"Em"EGB ^A2B|EGB ^A2B|eBB eBB| BAG"B"F3|"E"EGB ^A2B|EGB ^A2B|eBB "Am"cBA|"B7"GAF "Em"E2:|B|:"Em"eBB gfe|"B7"fBB agf|"Em"gfe gfe|"B"fBB "B7"c2B|"Em"eBB gfe|"B7"fBB agf|"Em"ezB "Am"cBA|"B7"GAF "Em"E2:|


Tune 736	Setting 13814

